logos/google-marketing-platform.svg

<svg width="256" height="256" xmlns="http://www.w3.org/2000/svg" preserveAspectRatio="xMidYMid">
	<defs>
		<linearGradient x1="0%" y1="50%" x2="99.999%" y2="50%" id="a">
			<stop stop-color="#246FDB" offset="0%"/>
			<stop stop-color="#2973DF" offset="5.52%"/>
			<stop stop-color="#377DEB" offset="27.81%"/>
			<stop stop-color="#3F83F2" offset="54.91%"/>
			<stop stop-color="#4285F4" offset="100%"/>
		</linearGradient>
	</defs>
	<path d="M173.2 82.8c25 25 25 65.5 0 90.5-12.5 12.5-12.5 32.8 0 45.2 12.5 12.5 32.8 12.5 45.3 0 50-50 50-131 0-181l-45.3 45.3Z" fill="#EA4335"/>
	<path d="M218.4 37.5c-50-50-130.9-50-180.9 0s-50 131 0 181l45.3-45.2c-25-25-25-65.5 0-90.5s65.5-25 90.5 0c12.5 12.5 32.8 12.5 45.3 0 12.3-12.5 12.3-32.8-.2-45.3Z" fill="url(#a)"/>
	<path d="m218.4 218.5-45.3-45.2c-25 25-65.5 25-90.5 0l-45.3 45.2c50.2 50 131.1 50 181.1 0Z" fill="#FBBC04"/>
	<path d="M173.2 173.3c12.5-12.5 32.7-12.5 45.2 0s12.5 32.8 0 45.3-32.7 12.5-45.2 0-12.5-32.8 0-45.3Z" fill="#EA4335"/>
	<path d="M37.5 173.3c12.5-12.5 32.7-12.5 45.2 0s12.5 32.8 0 45.3-32.7 12.5-45.2 0-12.5-32.8 0-45.3Z" fill="#34A853"/>
</svg>

<?xml version="1.0" encoding="UTF-8"?>
<svg width="256px" height="256px" viewBox="0 0 256 256" version="1.1" xmlns="http://www.w3.org/2000/svg" xmlns:xlink="http://www.w3.org/1999/xlink" preserveAspectRatio="xMidYMid">
    <defs>
        <linearGradient x1="0%" y1="50%" x2="99.999319%" y2="50%" id="linearGradient-1">
            <stop stop-color="#246FDB" offset="0%"></stop>
            <stop stop-color="#2973DF" offset="5.52%"></stop>
            <stop stop-color="#377DEB" offset="27.81%"></stop>
            <stop stop-color="#3F83F2" offset="54.91%"></stop>
            <stop stop-color="#4285F4" offset="100%"></stop>
        </linearGradient>
    </defs>
		<g>
				<path d="M173.2,82.8 C198.2,107.8 198.2,148.3 173.2,173.3 C160.7,185.8 160.7,206.1 173.2,218.5 C185.7,231 206,231 218.5,218.5 C268.5,168.5 268.5,87.5 218.5,37.5 L173.2,82.8 Z" fill="#EA4335"></path>
				<path d="M218.4,37.5 C168.4,-12.5 87.5,-12.5 37.5,37.5 C-12.5,87.5 -12.5,168.5 37.5,218.5 L82.8,173.3 C57.8,148.3 57.8,107.8 82.8,82.8 C107.8,57.8 148.3,57.8 173.3,82.8 C185.8,95.3 206.1,95.3 218.6,82.8 C230.9,70.3 230.9,50 218.4,37.5 Z" fill="url(#linearGradient-1)"></path>
				<path d="M218.4,218.5 L173.1,173.3 C148.1,198.3 107.6,198.3 82.6,173.3 L37.3,218.5 C87.5,268.5 168.4,268.5 218.4,218.5 Z" fill="#FBBC04"></path>
				<path d="M173.2,173.3 C185.7,160.8 205.9,160.8 218.4,173.3 C230.9,185.8 230.9,206.1 218.4,218.6 C205.9,231.1 185.7,231.1 173.2,218.6 C160.7,206.1 160.7,185.8 173.2,173.3 Z" fill="#EA4335"></path>
				<path d="M37.5,173.3 C50,160.8 70.2,160.8 82.7,173.3 C95.2,185.8 95.2,206.1 82.7,218.6 C70.2,231.1 50,231.1 37.5,218.6 C25,206.1 25,185.8 37.5,173.3 Z" fill="#34A853"></path>
		</g>
</svg>
